icons/2_Variations/Ultimaker bg.var.svg

<svg width="1024" height="1024" viewBox="0 0 1024 1024" fill="none" xmlns="http://www.w3.org/2000/svg">
<g clip-path="url(#clip0_3_305)">
<path d="M512 1024C794.77 1024 1024 794.77 1024 512C1024 229.23 794.77 0 512 0C229.23 0 0 229.23 0 512C0 794.77 229.23 1024 512 1024Z" fill="#728DBE"/>
<path d="M822.54 547.791C820.99 545.791 819.54 545.531 817.39 546.871C811.46 550.571 804.24 552.951 792.72 552.951C779.79 552.951 774.06 548.721 771.67 541.321C770.85 538.811 772.73 536.221 775.38 536.221H820.02C824.86 536.221 830.1 530.621 830.1 525.781V507.461C830.1 501.911 826.86 496.551 823.31 492.281C817.57 485.391 808.1 481.221 792.58 481.221C755.09 481.221 747.03 502.441 747.03 526.921C747.03 551.401 754.77 572.621 792.73 572.621C810.08 572.621 821.23 569.211 832.54 560.691L822.55 547.791V547.821L822.54 547.791ZM770.56 514.961V511.251C770.56 505.871 774.92 501.501 780.31 501.501H799.7C805.08 501.501 809.45 505.861 809.45 511.251V518.851H774.46C771.7 518.851 770.56 517.711 770.56 514.951V514.961ZM301.28 479.331V543.651C301.28 563.171 308.09 571.231 331.8 571.231C336.14 571.231 342.65 571.231 346.21 570.921V554.571C346.21 551.811 345.07 550.671 342.31 550.671C340.46 550.661 338.61 550.641 336.76 550.631C326.37 550.631 325.45 546.911 325.45 540.101V507.901C325.45 505.141 326.59 504.001 329.35 504.001H342.32C345.08 504.001 346.22 502.861 346.22 500.101V487.131C346.22 484.371 345.08 483.231 342.32 483.231H329.35C326.59 483.231 325.45 482.091 325.45 479.331V460.031C325.45 457.271 324.31 456.131 321.55 456.131H305.18C302.42 456.131 301.28 457.271 301.28 460.031V479.341V479.331ZM233.94 527.071V460.021C233.94 457.261 232.8 456.121 230.04 456.121H213.21C210.45 456.121 209.31 457.261 209.31 460.021V523.821C209.31 541.481 204.82 550.621 181.73 550.621C158.64 550.621 154.31 540.861 154.31 523.821V460.021C154.31 457.261 153.17 456.121 150.41 456.121H132.81C130.05 456.121 128.91 457.261 128.91 460.021V527.071C128.91 549.061 132.93 573.081 181.43 573.081C229.93 573.081 233.95 549.061 233.95 527.071H233.94ZM893.01 505.541C895.77 505.541 896.91 504.401 896.91 501.641V486.911C896.91 484.181 895.78 483.041 893.05 483.011C889.21 482.971 885.34 483.531 881.71 484.761C876.89 486.421 872.49 489.311 868.87 492.831C868.3 490.601 867.71 488.371 867.14 486.161C866.6 484.041 865.55 483.241 863.36 483.241H851.38C848.62 483.241 847.48 484.381 847.48 487.141V567.021C847.48 569.781 848.62 570.921 851.38 570.921H871.81V525.031C871.81 514.261 880.54 505.541 891.3 505.541H893H893.01ZM388.26 570.921V487.141C388.26 484.381 387.12 483.241 384.36 483.241H367.99C365.23 483.241 364.09 484.381 364.09 487.141V567.021C364.09 569.781 365.23 570.921 367.99 570.921H388.26ZM279.61 571.221V460.021C279.61 457.261 278.47 456.121 275.71 456.121H259.49C256.73 456.121 255.59 457.261 255.59 460.021V567.331C255.59 570.091 256.73 571.231 259.49 571.231H279.61V571.221ZM376.17 475.091C382.93 475.091 388.4 469.611 388.4 462.861C388.4 456.111 382.92 450.631 376.17 450.631C369.42 450.631 363.94 456.111 363.94 462.861C363.94 469.611 369.42 475.091 376.17 475.091ZM600.09 481.221C589.31 481.221 579.55 483.451 572.05 486.131C568.83 487.291 566.01 488.521 563.73 489.701C563.241 489.954 562.81 490.307 562.468 490.739C562.125 491.17 561.878 491.67 561.743 492.204C561.607 492.738 561.587 493.295 561.683 493.837C561.779 494.38 561.99 494.896 562.3 495.351C564.88 499.161 567.47 502.961 570.05 506.771C571.44 508.811 572.84 509.181 575.04 508.061C580.52 505.291 588.56 502.601 597.47 502.601C611.23 502.601 614.18 505.921 614.72 512.411C614.84 513.881 614.26 514.521 612.78 514.521H584.26C568.11 514.521 555.02 527.611 555.02 543.761V545.191C555.02 560.521 560.91 572.291 588.02 572.291H638.22V516.071C638.22 491.281 631.71 481.221 600.11 481.221H600.1H600.09ZM614.81 552.781C605.82 552.751 596.83 552.731 587.84 552.681C582.46 552.681 578.09 548.321 578.09 542.931V540.991C578.09 535.611 582.45 531.241 587.84 531.241H610.91C613.67 531.241 614.81 532.381 614.81 535.141V552.771V552.781ZM685.42 549.141L693.79 539.181C694.9 537.861 695.99 537.931 696.93 539.381L715.89 569.111C716.72 570.401 717.64 570.921 719.18 570.921H744C733.81 554.421 723.6 537.901 713.4 521.401C712.34 519.671 712.42 518.441 713.7 516.871C721.17 507.791 728.65 498.701 736.11 489.621C738.2 487.081 736.39 483.251 733.09 483.251H716.7C715.39 483.251 714.52 483.661 713.7 484.661C705.27 494.881 696.84 505.091 688.41 515.311C686.94 517.091 684.96 516.371 684.96 514.071V460.011C684.96 457.251 683.82 456.111 681.06 456.111H664.84C662.08 456.111 660.94 457.251 660.94 460.011V567.011C660.94 569.711 662.04 570.841 664.74 570.911H684.95V550.401C684.95 549.901 685.09 549.531 685.42 549.151H685.4L685.42 549.141ZM437.46 504.031C446.11 525.511 454.75 546.981 463.4 568.471C464.11 570.241 465.11 570.921 467.02 570.921H480.97C482.89 570.921 483.88 570.251 484.59 568.471C493.24 546.971 501.88 525.451 510.53 503.951C511.47 501.611 514.36 502.211 514.28 504.741L514.43 567.021C514.43 569.781 515.57 570.921 518.33 570.921H539.22V465.861C539.22 460.481 534.86 456.111 529.47 456.111H512.81C507.97 456.111 505.47 457.821 503.72 462.341C494.76 484.921 485.8 507.511 476.85 530.081C476.03 532.131 474.2 532.171 473.27 530.181C464.31 507.531 455.35 484.891 446.4 462.261C444.63 457.801 442.14 456.121 437.35 456.121H420.56C415.18 456.121 410.81 460.481 410.81 465.871V567.021C410.81 569.781 411.95 570.921 414.71 570.921H433.74V504.771C433.74 502.271 436.57 501.711 437.49 504.041H437.48L437.46 504.031Z" fill="white"/>
</g>
<defs>
<clipPath id="clip0_3_305">
<rect width="1024" height="1024" fill="white"/>
</clipPath>
</defs>
</svg>

<svg xmlns="http://www.w3.org/2000/svg" width="1024" height="1024" fill="none">
   <g clip-path="url(#a)">
      <path fill="#728DBE" d="M512 1024c282.77 0 512-229.23 512-512S794.77 0 512 0 0 229.23 0 512s229.23 512 512 512Z"/>
      <path fill="#fff" d="M822.54 547.791c-1.55-2-3-2.26-5.15-.92-5.93 3.7-13.15 6.08-24.67 6.08-12.93 0-18.66-4.23-21.05-11.63-.82-2.51 1.06-5.1 3.71-5.1h44.64c4.84 0 10.08-5.6 10.08-10.44v-18.32c0-5.55-3.24-10.91-6.79-15.18-5.74-6.89-15.21-11.06-30.73-11.06-37.49 0-45.55 21.22-45.55 45.7 0 24.48 7.74 45.7 45.7 45.7 17.35 0 28.5-3.41 39.81-11.93l-9.99-12.9v.03l-.01-.03Zm-51.98-32.83v-3.71c0-5.38 4.36-9.75 9.75-9.75h19.39c5.38 0 9.75 4.36 9.75 9.75v7.6h-34.99c-2.76 0-3.9-1.14-3.9-3.9v.01Zm-469.28-35.63v64.32c0 19.52 6.81 27.58 30.52 27.58 4.34 0 10.85 0 14.41-.31v-16.35c0-2.76-1.14-3.9-3.9-3.9-1.85-.01-3.7-.03-5.55-.04-10.39 0-11.31-3.72-11.31-10.53v-32.2c0-2.76 1.14-3.9 3.9-3.9h12.97c2.76 0 3.9-1.14 3.9-3.9v-12.97c0-2.76-1.14-3.9-3.9-3.9h-12.97c-2.76 0-3.9-1.14-3.9-3.9v-19.3c0-2.76-1.14-3.9-3.9-3.9h-16.37c-2.76 0-3.9 1.14-3.9 3.9v19.31-.01Zm-67.34 47.74v-67.05c0-2.76-1.14-3.9-3.9-3.9h-16.83c-2.76 0-3.9 1.14-3.9 3.9v63.8c0 17.66-4.49 26.8-27.58 26.8-23.09 0-27.42-9.76-27.42-26.8v-63.8c0-2.76-1.14-3.9-3.9-3.9h-17.6c-2.76 0-3.9 1.14-3.9 3.9v67.05c0 21.99 4.02 46.01 52.52 46.01s52.52-24.02 52.52-46.01h-.01Zm659.07-21.53c2.76 0 3.9-1.14 3.9-3.9v-14.73c0-2.73-1.13-3.87-3.86-3.9-3.84-.04-7.71.52-11.34 1.75-4.82 1.66-9.22 4.55-12.84 8.07-.57-2.23-1.16-4.46-1.73-6.67-.54-2.12-1.59-2.92-3.78-2.92h-11.98c-2.76 0-3.9 1.14-3.9 3.9v79.88c0 2.76 1.14 3.9 3.9 3.9h20.43v-45.89c0-10.77 8.73-19.49 19.49-19.49h1.71Zm-504.75 65.38v-83.78c0-2.76-1.14-3.9-3.9-3.9h-16.37c-2.76 0-3.9 1.14-3.9 3.9v79.88c0 2.76 1.14 3.9 3.9 3.9h20.27Zm-108.65.3v-111.2c0-2.76-1.14-3.9-3.9-3.9h-16.22c-2.76 0-3.9 1.14-3.9 3.9v107.31c0 2.76 1.14 3.9 3.9 3.9h20.12v-.01Zm96.56-96.13c6.76 0 12.23-5.48 12.23-12.23s-5.48-12.23-12.23-12.23-12.23 5.48-12.23 12.23 5.48 12.23 12.23 12.23Zm223.92 6.13c-10.78 0-20.54 2.23-28.04 4.91-3.22 1.16-6.04 2.39-8.32 3.57a3.886 3.886 0 0 0-1.987 2.503 3.878 3.878 0 0 0 .557 3.147c2.58 3.81 5.17 7.61 7.75 11.42 1.39 2.04 2.79 2.41 4.99 1.29 5.48-2.77 13.52-5.46 22.43-5.46 13.76 0 16.71 3.32 17.25 9.81.12 1.47-.46 2.11-1.94 2.11h-28.52c-16.15 0-29.24 13.09-29.24 29.24v1.43c0 15.33 5.89 27.1 33 27.1h50.2v-56.22c0-24.79-6.51-34.85-38.11-34.85h-.02Zm14.72 71.56c-8.99-.03-17.98-.05-26.97-.1-5.38 0-9.75-4.36-9.75-9.75v-1.94c0-5.38 4.36-9.75 9.75-9.75h23.07c2.76 0 3.9 1.14 3.9 3.9v17.64Zm70.61-3.64 8.37-9.96c1.11-1.32 2.2-1.25 3.14.2l18.96 29.73c.83 1.29 1.75 1.81 3.29 1.81H744c-10.19-16.5-20.4-33.02-30.6-49.52-1.06-1.73-.98-2.96.3-4.53 7.47-9.08 14.95-18.17 22.41-27.25 2.09-2.54.28-6.37-3.02-6.37H716.7c-1.31 0-2.18.41-3 1.41-8.43 10.22-16.86 20.43-25.29 30.65-1.47 1.78-3.45 1.06-3.45-1.24v-54.06c0-2.76-1.14-3.9-3.9-3.9h-16.22c-2.76 0-3.9 1.14-3.9 3.9v107c0 2.7 1.1 3.83 3.8 3.9h20.21v-20.51c0-.5.14-.87.47-1.25h-.02l.02-.01Zm-247.96-45.11c8.65 21.48 17.29 42.95 25.94 64.44.71 1.77 1.71 2.45 3.62 2.45h13.95c1.92 0 2.91-.67 3.62-2.45 8.65-21.5 17.29-43.02 25.94-64.52.94-2.34 3.83-1.74 3.75.79l.15 62.28c0 2.76 1.14 3.9 3.9 3.9h20.89v-105.06c0-5.38-4.36-9.75-9.75-9.75h-16.66c-4.84 0-7.34 1.71-9.09 6.23-8.96 22.58-17.92 45.17-26.87 67.74-.82 2.05-2.65 2.09-3.58.1-8.96-22.65-17.92-45.29-26.87-67.92-1.77-4.46-4.26-6.14-9.05-6.14h-16.79c-5.38 0-9.75 4.36-9.75 9.75v101.15c0 2.76 1.14 3.9 3.9 3.9h19.03v-66.15c0-2.5 2.83-3.06 3.75-.73h-.01l-.02-.01Z"/>
   </g>
   <defs>
      <clipPath id="a">
         <path fill="#fff" d="M0 0h1024v1024H0z"/>
      </clipPath>
   </defs>
</svg>
